!!!COM: Scriabin, Alexander
!!!OTL: Etude
!!!OPR: 12 Etudes
!!!OPS: 8
!!!ONM: 2
!!!ODT: 1894
!!!AGN: Etude
**kern	**dynam	**kern	**dynam
*staff2	*staff2	*staff1	*staff1
*Ipiano	*Ipiano	*Ipiano	*Ipiano
*clefF4	*clefF4	*clefG2	*clefG2
*k[f#c#g#]	*k[f#c#g#]	*k[f#c#g#]	*k[f#c#g#]
*met(C)	*met(C)	*met(C)	*met(C)
*M4/4	*M4/4	*M4/4	*M4/4
*MM92	*MM92	*MM92	*MM92
=1-	=1-	=1-	=1-
12FF#\L	.	20f#/LL	.
.	.	20g#/	.
12C#\	.	.	.
.	.	20cc#/	.
.	.	20f#/	.
12c#\J	.	.	.
.	.	20b/JJ	.
12B#\L	.	24a'/LL	.
.	.	24e'/	.
12F#\	.	24d#'/J	.
.	.	24g#/L	.
12C#\J	.	24dn'/	.
.	.	24f#'/JJ	.
16FF#\LL	.	2c#/	.
16C#\	.	.	.
16.A\	.	.	.
32e#^\JJk	.	.	.
16f#^\LL	.	.	.
16A\	.	.	.
16C#\	.	.	.
16FF#\JJ	.	.	.
=2	=2	=2	=2
12FF#\L	.	20b\LL	.
.	.	20cc#\	.
12D\	.	.	.
.	.	20ff#\	.
.	.	20b\	.
12B\J	.	.	.
.	.	20ee\JJ	.
16f#\LL	.	24dd\LL	.
.	.	24a'\	.
16e#\	.	.	.
.	.	24g#'\J	.
16B\	.	24cc#'\L	.
.	.	24gn'\	.
16D\JJ	.	.	.
.	.	24b'\JJ	.
16FF#\LL	.	2f#/	.
16D\	.	.	.
16.B\	.	.	.
32f#^\JJk	.	.	.
16g#^\LL	.	.	.
16B\	.	.	.
16D\	.	.	.
16FF#\JJ	.	.	.
=3	=3	=3	=3
12FF#\L	.	(20cc#\LL	.
.	.	20dd\	.
12C#\	.	.	.
.	.	20gg#\	.
.	.	20dd\	.
12B\J	.	.	.
.	.	20ff#\JJ	.
16g#\LL	.	20ee#\LL	.
.	.	20g#\	.
16e#\	.	.	.
.	.	20a\	.
16B\	.	.	.
.	.	20cc#\	.
16C#\JJ	.	.	.
.	.	20b\JJ	.
12FF#/L	.	20a\LL	.
.	.	20b\	.
12C#/	.	.	.
.	.	20een\	.
.	.	20a\	.
12A/J	.	.	.
.	.	20dd\JJ	.
12en\L	.	20cc#/LL	.
.	.	20f#/	.
12c#\	.	.	.
.	.	20g#/	.
.	.	20b/	.
12F#\J	.	.	.
.	.	20a/JJ	.
=4	=4	=4	=4
12FF#\L	.	20gn\LL	.
.	.	20a\	.
12D\	.	.	.
.	.	20dd\	.
.	.	20g\	.
12B\J	.	.	.
.	.	20cc#\JJ	.
12d\L	.	20b/LL	.
.	.	20d/	.
12B\	.	.	.
.	.	20e/	.
.	.	20a/	.
12D\J	.	.	.
.	.	20g/JJ	.
16FF#\LL	.	4f#/	.
16C#\	.	.	.
16.B\	.	.	.
32f#^\JJk	.	.	.
16g#^\LL	.	4e#/)	.
16B\	.	.	.
16C#\	.	.	.
16FF#\JJ	.	.	.
=5	=5	=5	=5
*	*	*k[f#]	*k[f#]
12FF#\L	.	20f#/LL	.
.	.	20g/	.
12C#\	.	.	.
.	.	20cc/	.
.	.	20f#/	.
12c#\J	.	.	.
.	.	20b/JJ	.
12B#\L	.	24a'/LL	.
.	.	24e'/	.
12F#\	.	24d#'/J	.
.	.	24g'/L	.
12C#\J	.	24dn'/	.
.	.	24f#'/JJ	.
16FF#\LL	.	2c/	.
16C#\	.	.	.
16.A\	.	.	.
32e#^\JJk	.	.	.
16f#^\LL	.	.	.
16A\	.	.	.
16C#\	.	.	.
16FF#\JJ	.	.	.
=6	=6	=6	=6
12FF#\L	.	20b\LL	.
.	.	20cc\	.
12D\	.	.	.
.	.	20ff#\	.
.	.	20b\	.
12B\J	.	.	.
.	.	20ee\JJ	.
16f#\LL	.	24dd'\LL	.
.	.	24a'\	.
16e#\	.	.	.
.	.	24g'\J	.
16B\	.	24cc'\L	.
.	.	24gn'\	.
16D\JJ	.	.	.
.	.	24b'\JJ	.
16FF#\LL	.	2f#/	.
16D\	.	.	.
16.B\	.	.	.
32f#^\JJk	.	.	.
16g#^\LL	.	.	.
16B\	.	.	.
16D\	.	.	.
16FF#\JJ	.	.	.
=7	=7	=7	=7
*	*	*k[f#c#g#]	*k[f#c#g#]
12FF#\L	mf	(20f#/LL	p
.	.	20g#/	.
12D#\	.	.	.
.	.	20cc#/	.
.	.	20f#/	.
12A\J	.	.	.
.	.	20b/JJ	.
12c#\L	.	20a/LL	.
.	.	20c#/	.
12A\	.	.	.
.	.	20d#/	.
.	.	20g#/	.
12D#\J	.	.	.
.	.	20f#/JJ	.
12GG#\L	.	20e/LL	.
.	.	20f#/	.
12E\	.	.	.
.	.	20b/	.
.	.	20e/	.
12c#\J	.	.	.
.	.	20a/JJ	.
12B\L	.	20g#/LL	.
.	.	20c#/	.
12A\	.	.	.
.	.	20d#/	.
.	.	20f#/	.
12G#\J	.	.	.
.	.	20e/JJ	.
=8	=8	=8	=8
12GG#/L	.	20dn/LL	.
.	.	20e/	.
12F#/	.	.	.
.	.	20a/	.
.	.	20d/	.
12GG#/J	.	.	.
.	.	20g#/JJ	.
12B#\L	.	20f#/LL	.
.	.	20A/	.
12F#\	.	.	.
.	.	20B#/	.
.	.	20e/	.
12GG#\J	.	.	.
.	.	20d/JJ	.
20CC#\LL	.	2c#/)	.
20GG#\	.	.	.
20E\	.	.	.
20c#\	.	.	.
20G#\JJ	.	.	.
16g#\LL	.	.	.
16c#\	.	.	.
16E\	.	.	.
16BBB\JJ	.	.	.
=9	=9	=9	=9
16AAA/LL	.	20c#/LL	p
.	.	20a/	.
16E/	.	.	.
.	.	20ee/	.
16c#/	.	.	.
.	.	20a/	.
16Gn/JJ	.	.	.
.	.	20dd/JJ	.
16gn\LL	.	24cc#/LL	.
.	.	24e/	.
16c#\	.	.	.
.	.	24f#/J	.
16E\	.	24a/L	.
.	.	24gn/	.
[16AA\JJ	.	.	.
.	.	24f#/JJ	.
16AAA/ 16AA/LL]	.	2F#/ 2d#/ 2b/	.
(16D#/	.	.	.
16B/	.	.	.
16F#/JJ	.	.	.
16f#/LL	.	.	.
16B/	.	.	.
16D#/	.	.	.
16AAA/ 16AA/JJ)	.	.	.
=10	=10	=10	=10
*^	*	*	*
12GGn/L	4GGGn\ 4GGn\	.	20B^/LL	.
.	.	.	20e/	.
12BB/	.	.	.	.
.	.	.	(20ccn^/	.
.	.	.	20e/	.
12B/J	.	.	.	.
.	.	.	20b^/JJ)	.
12FF#/L	4FFF#\ 4FF#\	.	20A^/LL	.
.	.	.	20d#/	.
12BB/	.	.	.	.
.	.	.	(20a#^/	.
.	.	.	20d#/	.
12B/J	.	.	.	.
.	.	.	20an^/JJ)	.
12EE/L	4EEE\ 4EE\	.	20Gn^/LL	.
.	.	.	20B/	.
12BB/	.	.	.	.
.	.	.	(20gn^/	.
.	.	.	20B/	.
12B/J	.	.	.	.
.	.	.	20f#^/JJ	.
12DD/L	4DDD\ 4DD\	.	20G^/LL)	.
.	.	.	20B/	.
12BB/	.	.	.	.
.	.	.	(20d#^/	.
.	.	.	20B/	.
12B/J	.	.	.	.
.	.	.	20e^/JJ)	.
*v	*v	*	*	*
=11	=11	=11	=11
16CCCn/ 16CCn/LL	.	20e\LL	f
.	.	20ccn\	.
16Gn/	.	.	.
.	.	20ggn\	.
16e/	.	.	.
.	.	20cc\	.
16B-/JJ	.	.	.
.	.	20ffn\JJ	.
16b-\LL	.	24ee\LL	.
.	.	24gn\	.
16e\	.	.	.
.	.	24a\J	.
16G\	.	24cc\L	.
.	.	24b-\	.
[16Cn\JJ	.	.	.
.	.	24a\JJ	.
16CC/ 16C/LL]	.	2A/ 2f#/ 2dd/	.
16F#/	.	.	.
16d/	.	.	.
16A/JJ	.	.	.
16a\LL	.	.	.
16d\	.	.	.
16F#\	.	.	.
16CC\ 16C\JJ	.	.	.
=12	=12	=12	=12
*^	*	*	*
12BB-/L	4BBB-\ 4BB-\	.	20d^/LL	.
.	.	.	20gn/	.
12D/	.	.	.	.
.	.	.	(20ee-^/	.
.	.	.	20g/	.
12d/J	.	.	.	.
.	.	.	20dd^/JJ)	.
12AA/L	4AAA\ 4AA\	.	20cn^/LL	.
.	.	.	20f#/	.
12D/	.	.	.	.
.	.	.	(20cc#^/	.
.	.	.	20f#/	.
12d/J	.	.	.	.
.	.	.	20ccn^/JJ)	.
12GGn/L	4GGGn\ 4GGn\	.	20d^/LL	.
.	.	.	20d/	.
12D/	.	.	.	.
.	.	.	(20b-^/	.
.	.	.	20d/	.
12d/J	.	.	.	.
.	.	.	20a^/JJ)	.
12GG/L	4GGG\ 4GG\	.	20B^/LL	.
.	.	.	20e/	.
12C#/	.	.	.	.
.	.	.	(20f#^/	.
.	.	.	20e/	.
12c#/J	.	.	.	.
.	.	.	20g^/JJ)	.
*v	*v	*	*	*
=13	=13	=13	=13
12DDD/ 12DD/L	.	20f#^/LL	ff
.	.	20dd/	.
12AA/	.	.	.
.	.	20aa^/	.
.	.	20dd/	.
12F#/J	.	.	.
.	.	20gg#^/JJ	.
12cn\L	.	20a^/LL	.
.	.	20dd/	.
12F#\	.	.	.
.	.	20ggn^/	.
.	.	20dd/	.
12AA\J	.	.	.
.	.	20ff#^/JJ	.
12DDD/ 12DD/L	.	20b-^/LL	.
.	.	20dd/	.
12GGn/	.	.	.
.	.	20ff#^/	.
.	.	20dd/	.
12D/J	.	.	.
.	.	20ffn^/JJ	.
12B-\L	.	20e^/LL	.
.	.	20gn/	.
12C#\	.	.	.
.	.	20ee^/	.
.	.	20g/	.
12GG\J	.	.	.
.	.	20cc#^/JJ	.
=14	=14	=14	=14
16DDD/ 16DD/LL	.	20cn^/LL	.
.	.	20f#/	.
16AA/	.	.	.
.	.	20ee-^/	.
16D/	.	.	.
.	.	20f#/	.
16A/JJ	.	.	.
.	.	20dd^/JJ	.
12e-\L	.	20c^/LL	.
.	.	20f#/	.
12F#\	.	.	.
.	.	20cc#^/	.
.	.	20f#/	.
12AA\J	.	.	.
.	.	20ccn^/JJ	.
12DDD/ 12DD/L	.	20B-^/LL	.
.	.	20gn/	.
12BB-/	.	.	.
.	.	20cc^/	.
.	.	20g/	.
12E-/J	.	.	.
.	.	20b-^/JJ	.
12c#\L	.	20Gn^/LL	.
.	.	20e-/	.
12E-\	.	.	.
.	.	20a^/	.
.	.	20e-/	.
12BB-\J	.	.	.
.	.	20g^/JJ	.
=15	=15	=15	=15
12DDD/ 12DD/L	.	20F#^/LL	.
.	.	20d/	.
12AA/	.	.	.
.	.	20a^/	.
.	.	20d/	.
12F#/J	.	.	.
.	.	20g#^/JJ	.
12cn\L	.	20A^/LL	.
.	.	20d/	.
12F#\	.	.	.
.	.	20gn^/	.
.	.	20d/	.
12AA\J	.	.	.
.	.	20f#^/JJ	.
12DDD/ 12DD/L	.	20B-^/LL	.
.	.	20d/	.
12GGn/	.	.	.
.	.	20f#^/	.
.	.	20d/	.
12D/J	.	.	.
.	.	20fn^/JJ	.
*	*	*clefF4	*clefF4
12B-\L	.	20E^\LL	p
.	.	20Gn\	.
12C#\	.	.	.
.	.	20e^\	.
.	.	20G\	.
12GG\J	.	.	.
.	.	20c#^\JJ	.
=16	=16	=16	=16
12DDD/ 12DD/L	.	20F#\LL	.
.	.	20B#\	.
12AA/	.	.	.
.	.	20c#\	.
.	.	20B#\	.
12D/J	.	.	.
.	.	20d\JJ	.
12A\L	.	20F#\LL	.
.	.	20B#\	.
12D\	.	.	.
.	.	20e#\	.
.	.	20B#\	.
12AA\J	.	.	.
.	.	20f#\JJ	.
*	*	*clefG2	*clefG2
16DD/LL	.	20B#/LL	.
.	.	20f#/	.
16AA/	.	.	.
.	.	20g#/	.
16D/	.	.	.
.	.	20f#/	.
16A/JJ	.	.	.
.	.	20a/JJ	.
12d\L	.	20B#/LL	.
.	.	20f#/	.
12A\	.	.	.
.	.	20bn/	.
.	.	20f#/	.
12D\J	.	.	.
.	.	20b#/JJ	.
=17	=17	=17	=17
12CCC#/ 12CC#/L	.	20f#/LL	ff
.	.	20g#/	.
12C#/	.	.	.
.	.	20cc#/	.
.	.	20f#/	.
12c#/J	.	.	.
.	.	20b/JJ	.
12B#\L	.	24a'/LL	.
.	.	24e'/	.
12F#\	.	24d#'/J	.
.	.	24g#/L	.
12C#\J	.	24dn'/	.
.	.	24f#'/JJ	.
16CC#\ 16C#\LL	.	2c#/	.
16C#\	.	.	.
16.A\	.	.	.
32e#^\JJk	.	.	.
16f#^\LL	.	.	.
16A\	.	.	.
16C#\	.	.	.
16CC#\ 16C#\JJ	.	.	.
=18	=18	=18	=18
12CC#/ 12C#/L	.	20b\LL	.
.	.	20cc#\	.
12D/	.	.	.
.	.	20ff#\	.
.	.	20b\	.
12B/J	.	.	.
.	.	20ee\JJ	.
16f#\LL	.	24dd'\LL	.
.	.	24a'\	.
16e#\	.	.	.
.	.	24g#'\J	.
16B\	.	24cc#'\L	.
.	.	24gn'\	.
16D\JJ	.	.	.
.	.	24b'\JJ	.
16CC#\ 16C#\LL	.	2f#/	.
16D\	.	.	.
16.B\	.	.	.
32f#^\JJk	.	.	.
16g#^\LL	.	.	.
16B\	.	.	.
16D\	.	.	.
16CC#\ 16C#\JJ	.	.	.
=19	=19	=19	=19
16CC#\ 16C#\LL	.	20ee\LL	.
.	.	20ff#\	.
16Gn\	.	.	.
.	.	20bb\	.
16e\	.	.	.
.	.	20ee\	.
16B\JJ	.	.	.
.	.	20aa\JJ	.
12b\L	.	20ggn\LL	.
.	.	20b\	.
12e\	.	.	.
.	.	20cc#\	.
.	.	20ff#\	.
12G\J	.	.	.
.	.	20ee\JJ	.
16DD\ 16D\LL	.	20b\LL	.
.	.	20cc#\	.
16G#\	.	.	.
.	.	20ff#\	.
16f#\	.	.	.
.	.	20b\	.
16B\JJ	.	.	.
.	.	20ee\JJ	.
12b\L	.	20dd/LL	.
.	.	20f#/	.
12f#\	.	.	.
.	.	20g#/	.
.	.	20cc#/	.
12G#\J	.	.	.
.	.	20b/JJ	.
=20	=20	=20	=20
12CC#/ 12C#/L	.	20B/LL	.
.	.	20gn/	.
12B/	.	.	.
.	.	20dd/	.
.	.	20g/	.
12C#/J	.	.	.
.	.	20cc#/JJ	.
12e#/L	.	20b/LL	.
.	.	20d/	.
12B/	.	.	.
.	.	20e#/	.
.	.	20a/	.
12CC#/ 12C#/J	.	.	.
.	.	20g#/JJ	.
16FFF#/ 16FF#/LL	.	2A/ 2f#/	.
16C#/	.	.	.
16A/	.	.	.
16f#/JJ	.	.	.
16f#\LL	.	.	.
16A\	.	.	.
16C#\	.	.	.
16FF#\JJ	.	.	.
=21	=21	=21	=21
12FFF#/ 12FF#/L	.	20a#\LL	pp
.	.	20cc#\	.
12E/	.	.	.
.	.	20aa#\	.
.	.	20cc#\	.
12A#/J	.	.	.
.	.	20ggn\JJ	.
12f#\L	.	20ff#\LL	.
.	.	20a#\	.
12A#\	.	.	.
.	.	20b\	.
.	.	20cc#\	.
12E\J	.	.	.
.	.	20f#\JJ	.
12FFF#/ 12FF#/L	.	20b\LL	.
.	.	20dd\	.
12D/	.	.	.
.	.	20bb\	.
.	.	20dd\	.
12B/J	.	.	.
.	.	20aan\JJ	.
12gn\L	.	20ggn\LL	.
.	.	20b\	.
12B\	.	.	.
.	.	20cc#\	.
.	.	20dd\	.
12D\J	.	.	.
.	.	20an\JJ	.
=22	=22	=22	=22
16FFF#/ 16FF#/LL	.	20gn\LL	.
.	.	20ee\	.
16C#/	.	.	.
.	.	20bb\	.
16B/	.	.	.
.	.	20ee\	.
16e/JJ	.	.	.
.	.	20aa\JJ	.
16b\LL	.	20ggn\LL	.
.	.	20b\	.
16e\	.	.	.
.	.	20cc#\	.
16B\	.	.	.
.	.	20ff#\	.
16C#\JJ	.	.	.
.	.	20ee\JJ	.
16FFF#/ 16FF#/LL	.	2c#/ 2f#/ 2a#/	.
16C#/	.	.	.
16A#/	.	.	.
16f#/JJ	.	.	.
16a#\LL	.	.	.
16f#\	.	.	.
16A#\	.	.	.
16C#\JJ	.	.	.
=23	=23	=23	=23
12FFF#/ 12FF#/L	.	20B/LL	.
.	.	20gn/	.
12D/	.	.	.
.	.	20dd/	.
.	.	20g/	.
12B/J	.	.	.
.	.	20cc#/JJ	.
12e#\L	.	20b/LL	.
.	.	20d/	.
12B\	.	.	.
.	.	20e#/	.
.	.	20a/	.
12D\J	.	.	.
.	.	20gn/JJ	.
16FFF#/ 16FF#/LL	.	2A#/ 2f#/	.
16C#/	.	.	.
16A#/	.	.	.
16f#/JJ	.	.	.
16cc#\LL	.	.	.
16f#\	.	.	.
16A#\	.	.	.
16C#\JJ	.	.	.
=24	=24	=24	=24
12FFF#/ 12FF#/L	.	20B/LL	.
.	.	20gn/	.
12D/	.	.	.
.	.	20dd/	.
.	.	20g/	ppp
12B/J	.	.	.
.	.	20cc#/JJ	.
12e#\L	.	20b/LL	.
.	.	20d/	.
12B\	.	.	.
.	.	20e#/	.
.	.	20a/	.
12D\J	.	.	.
.	.	20gn/JJ	.
16FFF#/ 16FF#/LL	.	2A#/ 2f#/	.
16C#/	.	.	.
16A#/	.	.	.
16f#/JJ	.	.	.
16dd\LL	.	.	.
16f#\	.	.	.
16A#\	.	.	.
16CC#\ [16C#\JJ	.	.	.
=25	=25	=25	=25
*^	*	*	*
1C#]	8.FF#\L	.	16r	.
.	.	.	16A#/LL	.
.	.	.	16c#/	.
.	16CC#\Jk	.	[16f#/ [16a#/JJ	.
.	8.FF#\L	.	16f#/] 16a#/LL]	.
.	.	.	16A#/	.
.	.	.	16c#/	.
.	16CC#\Jk	.	[16f#/ [16a#/JJ	.
.	8.FF#\L	.	16f#/] 16a#/LL]	.
.	.	.	16A#/	.
.	.	.	16c#/	.
.	16CC#\Jk	.	[16f#/ [16a#/JJ	.
.	8.FF#\L	.	16f#/] 16a#/LL]	.
.	.	.	16A#/	.
.	.	.	16c#/	.
.	16CC#\Jk	.	16a#/JJ	.
*v	*v	*	*	*
=26	=26	=26	=26
1FFF# 1FF# 1C#	.	1A# 1f#	.
==	==	==	==
*-	*-	*-	*-
!!!ENC: Craig Stuart Sapp
!!!END: 2004/09/03/
